Numix/64/actions/edit-undo-archive.svg

<?xml version="1.0" encoding="UTF-8" standalone="no"?>
<svg
   xmlns:dc="http://purl.org/dc/elements/1.1/"
   xmlns:cc="http://creativecommons.org/ns#"
   xmlns:rdf="http://www.w3.org/1999/02/22-rdf-syntax-ns#"
   xmlns:svg="http://www.w3.org/2000/svg"
   xmlns="http://www.w3.org/2000/svg"
   xmlns:sodipodi="http://sodipodi.sourceforge.net/DTD/sodipodi-0.dtd"
   xmlns:inkscape="http://www.inkscape.org/namespaces/inkscape"
   width="64"
   height="64"
   viewBox="0 0 64 64"
   id="svg2"
   version="1.1"
   inkscape:version="0.91 r"
   sodipodi:docname="edit-undo-archive.svg">
  <metadata
     id="metadata16">
    <rdf:RDF>
      <cc:Work
         rdf:about="">
        <dc:format>image/svg+xml</dc:format>
        <dc:type
           rdf:resource="http://purl.org/dc/dcmitype/StillImage" />
        <dc:title></dc:title>
      </cc:Work>
    </rdf:RDF>
  </metadata>
  <defs
     id="defs14" />
  <sodipodi:namedview
     pagecolor="#ffffff"
     bordercolor="#666666"
     borderopacity="1"
     objecttolerance="10"
     gridtolerance="10"
     guidetolerance="10"
     inkscape:pageopacity="0"
     inkscape:pageshadow="2"
     inkscape:window-width="1920"
     inkscape:window-height="1056"
     id="namedview12"
     showgrid="true"
     inkscape:zoom="3.6875"
     inkscape:cx="16.37653"
     inkscape:cy="-4.9114197"
     inkscape:window-x="0"
     inkscape:window-y="24"
     inkscape:window-maximized="1"
     inkscape:current-layer="svg2">
    <inkscape:grid
       type="xygrid"
       id="grid4155" />
  </sodipodi:namedview>
  <path
     style="fill:#c19553"
     d="M 7.207031 4 C 5.605469 4 4 5.605469 4 7.207031 L 4 56.882812 C 4 58.394531 5.605469 60 7.117188 60 L 56.882812 60 C 58.394531 60 60 58.394531 60 56.882812 L 60 7.117188 C 60 5.605469 58.394531 4 56.882812 4 Z "
     id="path4" />
  <path
     style="fill:#fff;fill-opacity:.196"
     d="M 7.207031 4 C 5.605469 4 4 5.605469 4 7.207031 L 4 24 C 10.214844 24 53.785156 24 60 24 L 60 7.117188 C 60 5.605469 58.394531 4 56.882812 4 Z "
     id="path6" />
  <path
     style="fill:#fff"
     d="M 28 4 L 28 8 L 32 8 L 32 12 L 28 12 L 28 16 L 32 16 L 32 20 L 28 20 L 28 24 L 32 24.039062 L 32 32.039062 L 28 32 L 28 40 L 36 40 L 36 32 L 32 32.039062 L 32 28 L 36 28 L 36 24 L 32 24.039062 L 32 20 L 36 20 L 36 16 L 32 16 L 32 12 L 36 12 L 36 8 L 32 8 L 32 4 Z "
     id="path8" />
  <path
     id="path4146"
     d="M 51.555625,63.885051 C 53.581699,63.034644 55.359316,62.058723 56.8603,60.959844 71.642184,49.35124 61.550766,32.040789 44,32.040789 L 44,22.033104 24,37.043351 44,54.553597 44,44.548474 c 15.048272,2.525614 15.111778,4.802766 7.581239,17.484629 0,0 -2.502495,2.528177 0,1.851948 z"
     style="fill:#cb4b16"
     inkscape:connector-curvature="0"
     sodipodi:nodetypes="cccccccccc" />
</svg>

<svg xmlns="http://www.w3.org/2000/svg" viewBox="0 0 64 64">
 <path d="m 7.207 4 c -1.602 0 -3.207 1.605 -3.207 3.207 l 0 49.676 c 0 1.512 1.605 3.117 3.117 3.117 l 49.766 0 c 1.512 0 3.117 -1.605 3.117 -3.117 l 0 -49.766 c 0 -1.512 -1.605 -3.117 -3.117 -3.117 Z" style="fill:#c19553"/>
 <path d="m 7.207 4 c -1.602 0 -3.207 1.605 -3.207 3.207 l 0 16.793 c 6.215 0 49.785 0 56 0 l 0 -16.883 c 0 -1.512 -1.605 -3.117 -3.117 -3.117 Z" style="fill:#fff;fill-opacity:0.196"/>
 <path d="m 28 4 l 0 4 l 4 0 l 0 4 l -4 0 l 0 4 l 4 0 l 0 4 l -4 0 l 0 4 l 4 0.039 l 0 8 l -4 -0.039 l 0 8 l 8 0 l 0 -8 l -4 0.039 l 0 -4.04 l 4 0 l 0 -4 l -4 0.039 l 0 -4.04 l 4 0 l 0 -4 l -4 0 l 0 -4 l 4 0 l 0 -4 l -4 0 l 0 -4 Z" style="fill:#fff"/>
 <path d="m 51.56 63.885 c 2.026 -0.85 3.804 -1.826 5.305 -2.925 14.782 -11.609 4.69 -28.919 -12.86 -28.919 l 0 -10.01 -20 15.01 20 17.51 0 -10.01 c 15.05 2.526 15.11 4.803 7.581 17.485 0 0 -2.502 2.528 0 1.852 z" style="fill:#cb4b16"/>
</svg>
